X:1
T:Cantate Domino
T:Giovanni Francesco Anerio (1567-1630)
T:Cantate Domino
C:Giovanni Francesco Anerio (1567-1630)
%%score [ 1 2 3 4 ]
L:1/8
Q:1/2=80
M:4/2
K:G
V:1 treble nm="SOPRANO" snm="S."
V:2 treble nm="ALTO" snm="A."
V:3 treble-8 transpose=-12 nm="TENOR" snm="T."
V:4 bass nm="BASS" snm="B."
V:1
 d4 BABc d2 B2 A3 A | G8 z4 z2 d2 | BABc d2 d2 ^c3 c d2 G2- | GG G2 F4 G8 | B8 A6 G2 | %5
w: Can- ta- * * * * te Do- mi-|no, can-|ta- * * * * te Do- mi- no can-|* ti- cum no- vum,|laus e- ius|
 A4 B4 c6 c2 | B4 d8 ^c4 | d8 z8 | z16 | z16 | z16 ||[M:3/2][Q:1/2=128] e4 d4 c4 | B6 B2 A4 | %13
w: in ec- cle- si-|a san- cto-|rum,||||Lae- te- tur|I- sra- el,|
 e4 A4 c4 | B6 B2 B4 | G4 F8 | E8 z4 | c4 B4 A4 | ^G6 G2 A4 | A8 ^G4 ||[M:4/2][Q:1/2=80] A8 z8 | %21
w: lae- te- tur|I- sra- el|in e-|o,|lae- te- tur|I- sra- el|in e-|o|
 z8 z4 A4 | A6 G2 A4 A4 | B8 z8 | z8 z2 c2 B4 | c2 c2 B2 B2 A8 | A8 z8 | z4 A4 B2 BB B2 c2 | %28
w: et|fi- li- ae Si-|on|e- xul-|tent in re- ge su-|o,|in tym- pa- no et psal-|
 d2 dd c2 B2 A4 G4 | z8 z4 z2 E2 | F2 FF F2 G2 A2 AA A2 B2 | A16 | B8 z8 | z16 | z16 || %35
w: te- ri- o psal- lant e- i,|in|tym- pa- no et psal- te- ri- o psal- lant|e-|i.|||
[M:3/2][Q:1/2=128] c8 B4 | A8 ^G4 | A6 A2 B4 | c6 c2 B4 | B8 A4 | G8 F4 | G6 G2 A4 | B6 B2 A4 | %43
w: e- xul-|ta- bunt|San- cti in|glo- ri- a,|e- xul-|ta- bunt|San- cti in|glo- ri- a,|
 A8 ^G4 | A8 A4 | z12 | z12 | B8 A4 | B8 F4 | G8 A4 | B6 B2 A4 | F8 E4 | G8 A4 | B8 B4 | =G8 G4 | %55
w: lae- ta-|bun- tur,|||lae- ta-|bun- tur|in cu-|bi- li- bus|su- is,|lae- ta-|bun- tur|in cu-|
 F6 F2 G4 ||[M:4/2][Q:1/2=80] F3 E F4 G4 B2 c2 | d3 B c2 B2 A4 G4 | z16 | F2 G2 A3 F G3 F E4 | %60
w: bi- li- bus|su- * * is. E- xal-|ta- ti- o- nes De- i,||e- xal- ta- ti- o- nes De-|
 F4 A4 B6 B2 | c4 B4 d8 | B4 B4 B6 B2 | B4 ^c4 d8- | d16- | d8 B8 |] %66
w: i in fau- ci-|bus e- o-|rum, in fau- ci-|bus e- o-||* rum.|
V:2
 z2 D2 GFGE F2 G2 F3 F | G4 z4 z4 z2 D2 | GFGA G2 F2 A3 A F2 E2- | EE D2 D4 D4 D4 | G8 F6 E2 | %5
w: Can- ta- * * * * te Do- mi-|no, can-|ta- * * * * te Do- mi- no can-|* ti- cum no- vum, laus|e- * ius|
 F4 ^G4 A6 A2 | =G4 F4 E8 | D4 D4 C4 B,4 | C6 C2 B,4 D4 | D4 E4 =F8 | E16 ||[M:3/2] G4 G4 E4 | %12
w: in ec- cle- si-|a san- cto-|rum, laus e- ius|in ec- cle- si-|a san- cto-|rum.|Lae- te- tur|
 E6 E2 E4 | E4 F4 A4 | =G6 G2 F4 | E8 ^D4 | E8 z4 | G4 G4 E4 | E6 E2 C4 | =F4 E8 || %20
w: I- sra- el,|lae- te- tur|I- sra- el|in e-|o,|lae- te- tur|I- sra- el|in e-|
[M:4/2] E4 E4 E4 ^F4 | G8 F4 F4 | F6 D2 E4 F4 | G4 D4 D6 ^C2 | D4 D4 E2 G2 G4 | G2 A2 F2 G2 E8 | %26
w: o, qui fe- cit|e- um, et|fi- li- ae Si-|on, et fi- li-|ae Si- on e- xul-|tent in re- ge su-|
 F8 z8 | z4 D4 D2 DD G2 E2 | F2 FG A2 G2 F4 G4 | z16 | z4 D4 F2 FF F2 G2 | F2 FF F2 E2 F2 G4 F2 | %32
w: o,|in tym- pa- no et psal-|te- ri- o psal- lant e- i,||in tym- pa- no et psal-|te- ri- o psal- lant e- * *|
 G4 D4 D2 DD D2 E2 | D2 DD D6 E2 D4 | E16 ||[M:3/2] E8 D4 | C8 B,4 | C6 C2 D4 | E6 E2 D4 | G8 F4 | %40
w: * in tym- pa- no et psal-|te- ri- o psal- lant e-|i.|e- xul-|ta- bunt|San- cti in|glo- ri- a,|e- xul-|
 E8 ^D4 | E6 E2 F4 | G6 G2 F4 | F8 D4 | E8 E4 | E8 D4 | E8 E4 | G8 E4 | F8 ^D4 | z4 E4 F4 | %50
w: ta- bunt|San- cti in|glo- ri- a,|lae- ta-|bun- tur,|lae- ta-|bun- tur,|lae- ta-|bun- tur|in cu-|
 G6 G2 E4 | ^D8 E4 | E8 E4 | =G8 G4 | D8 E4 | A,6 A,2 D4 ||[M:4/2] D8 D4 G2 E2 | F3 G A2 G2 F4 G4 | %58
w: bi- li- bus|su- is,|lae- ta-|bun- tur|in cu-|bi- li- bus|su- is. E- xal-|ta- ti- o- nes De- i,|
 z16 | D2 E2 F3 D E2 D2 ^C4 | D4 F4 G6 G2 | G4 G8 F4 | G2 D2 G8 G4 | G4 G4 F6 E2 | %64
w: |e- xal- ta- ti- o- * nes|i in fau- ci-|bus e- o-|rum, in fau- *|bus e- o- *|
 F2 G2 A6 G2 G4- | G4 F4 G8 |] %66
w: |* * rum.|
V:3
 z8 z4 d4 | BABc d2 B2 A3 A G2 B2 | d3 c B2 d2 e3 e d2 B2- | BB B2 A4 G8 | z4 G4 d6 e2 | %5
w: Can-|ta- * * * * te Do- mi- no, can-|ta- * * te Do- mi- no can-|* ti- cum no- vum|laus e- ius|
 d4 B4 A6 A2 | E4 F4 A8 | D4 A4 G6 F2 | G4 A4 B6 B2 | A4 c8 B4 | c16 ||[M:3/2] c4 B4 A4 | %12
w: in ec- cle- si-|a san- cto-|rum, laus e- ius|in ec- cle- si-|a san- cto-|rum.|Lae- te- tur|
 ^G6 G2 A4 | c4 d4 A4 | e6 e2 ^d4 | e4 B8 | E8 z4 | e4 d4 c4 | B6 B2 A4 | d4 B8 || %20
w: I- sra- el,|lae- te- tur|I- sra- el|in e-|o,|lae- te- tur|I- sra- el|in e-|
[M:4/2] A4 c4 B4 A2 d2- | d2 ^cB c4 d4 d4 | d6 B2 ^c4 d4 | G4 B4 B6 G2 | A4 B4 c2 e2 d4 | %25
w: o, qui fe- cit e-|* * * * um, et|fi- li- ae Si-|on, et fi- li-|ae Si- on e- xul-|
 e2 e2 d2 d2 ^c2 d4 c2 | d2 d4 d2 B2 =c2 A4 | B2 G2 A4 G4 z4 | z8 z2 A2 B2 BB | %29
w: tent in re- ge su- * *|o, Lau- dent no- men e-|ius in co- ro,|in tym- pa- no|
 B2 c2 d2 dc B2 d2 ^c4 | d4 D4 d2 dd d2 G2 | d2 dd d2 ^c2 d8 | G4 G4 B2 BB B2 c2 | %33
w: et psal- te- ri- o psal- lant e-|i in tym- pa- no et psal-|te- ri- o psal- lant e-|i in tym- pa- no et psal-|
 B2 BB B2 A2 B2 c4 B2 | c16 ||[M:3/2] c8 G4 | A8 E4 | A6 A2 G4 | c6 c2 G4 | d8 d4 | B8 B4 | %41
w: te- ri- o psal- lant e- * *|i.|e- xul-|ta- bunt|San- cti in|glo- ri- a,|e- xul-|ta- bunt|
 B6 B2 d4 | d6 d2 d4 | d8 B4 | A8 A4 | c8 A4 | B8 B4 | e8 c4 | B8 B4 | e8 =d4 | G6 G2 A4 | B8 E4 | %52
w: San- cti in|glo- ri- a,|lae- ta-|bun- tur,|lae- ta-|bun- tur,|lae- ta-|bun- tur|in cu-|bi- li- bus|su- is,|
 B8 c4 | d8 d4 | B8 c4 | d6 d2 B4 ||[M:4/2] A8 G4 z4 | z8 z4 B2 c2 | d3 B c2 B2 A4 G4 | %59
w: lae- ta-|bun- tur|in cu-|bi- li- bus|su- is.|E- xal-|ta- ti- o- nes De- i,|
 B2 e2 d3 d G2 G2 A4 | D4 d4 d6 d2 | G4 G4 A8 | G4 G4 d6 d2 | G4 G4 A4 A2 A2 | d6 d2 B4 B4 | %65
w: e- xal- ta- ti- o- nes De-|i in fau- ci-|bus e- o-|rum, in fau- ci-|bus e- o- rum, in|fau- ci- bus e-|
 A8 G8 |] %66
w: o- rum.|
V:4
 z8 z4 z2 D,2 | G,F,G,E, F,2 G,2 F,3 F, G,2 G,2 | G,6 B,2 A,3 A, D,2 E,2- | E,E, B,,2 D,4 G,,8 | %4
w: Can-|ta- * * * * te Do- mi- no, can-|ta- te Do- mi- no can-|* ti- cum no- vum|
 z16 | z16 | z16 | z4 D,4 E,6 D,2 | E,4 F,4 G,6 G,2 | =F,4 E,4 D,8 | C,16 ||[M:3/2] C4 G,4 A,4 | %12
w: |||laus e- ius|in ec- cle- si-|a san- cto-|rum.|Lae- te- tur|
 E,6 E,2 A,4 | z12 | z12 | z12 | z12 | C,4 G,4 A,4 | E,6 E,2 =F,4 | D,4 E,8 || %20
w: I- sra- el,|||||lae- te- tur|I- sra- el|in e-|
[M:4/2] A,,4 A,4 G,4 F,4 | E,8 D,8 | z16 | z4 G,4 G,6 E,2 | F,4 G,4 C,2 C2 G,4 | %25
w: o, qui fe- cit|e- um,||et fi- li-|ae Si- on e- xul-|
 C2 A,2 B,2 G,2 A,8 | D,2 D,4 D,2 G,2 E,2 F,4 | G,2 E,2 F,4 G,4 z4 | z8 D,4 G,2 G,G, | %29
w: tent in re- ge su-|o, Lau- dent no- men e-|ius in co- ro,|in tym- pa- no|
 G,2 A,2 B,2 B,A, G,2 F,2 E,4 | D,8 z8 | z16 | z4 G,4 G,2 G,G, G,2 C,2 | G,2 G,G, G,2 F,2 G,8 | %34
w: et psal- te- ri- o psal- lant e-|i||in tym- pa- no et psal-|te- ri- o psal- lant e-|
 C,16 ||[M:3/2] z12 | z12 | z12 | z12 | G,8 D,4 | E,8 B,,4 | E,6 E,2 D,4 | G,6 G,2 D,4 | z12 | %44
w: i.|||||e- xul-|ta- bunt|San- cti in|glo- ri- a,||
 z12 | A,8 =F,4 | E,8 E,4 | z12 | z12 | z12 | z12 | z12 | E,8 A,4 | G,8 G,4 | G,8 E,4 | %55
w: |lae- ta-|bun- tur||||||lae- ta-|bun- tur|in cu-|
 D,6 D,2 G,,4 ||[M:4/2] D,8 G,,4 z4 | z8 z4 G,2 A,2 | B,3 G, A,2 G,2 F,4 G,4 | z16 | %60
w: bi- li- bus|su- is.|E- xal-|ta- ti- o- nes De- i,||
 z4 D,4 G,6 G,2 | E,4 E,4 D,8 | G,,4 G,,4 G,6 G,2 | E,4 E,4 D,8- | D,16- | D,8 G,,8 |] %66
w: in fau- ci-|bus e- o-|rum, in fau- ci-|bus e- o-||* rum.|

